X: 16683
T: Happy Birdie
R: polka
M: 2/4
K: Gmajor
B/c/|dd eB|dc cc/d/|ff AA|dd B>c|
dd eB|dc cc/d/|ff f/e/c/A/|GF G:|F/G/||
Af f>A|Af f>g|fe A>f|ed A>B|
Ad d>B|Af f>g|fe fe|d2 dB/c/|
dd eB|dc cc/d/|ff AA|dd B>c|
dd eB|dc c/B/A/B/|c/B/c/d/ e/d/e/f/|gf gc/d/|
K:C
ec ea|gB Bd/e/|fe fa|gc cc/d/|
ec ea|gB Bd/e/|f/e/d/c/ Bg|Bc c||

